X:1
T:Title
%%score { ( 1 3 ) | ( 2 4 ) }
L:1/8
Q:1/4=108
M:3/4
K:G
V:1 treble nm="Grand Piano"
V:3 treble 
V:2 bass 
V:4 bass 
V:1
 [B,G]2 [DF]2 [CE]2 | [B,D]4 [B,G]2 | F2 G2 A2 | B4 A2 | c2 B2 [DA]2 | [DG]4 [B,G]2 | B2 A2 G2 | %7
w: Jay~Deavereaux * *|||||||
 d6 | z2 E2 [B,DF]2 | B,2 C2 [G,DG]2 | c2 B2 [E_B]2 | B2- [EB]2 [FB]2 | e2 d2 [Ec]2 | %13
w: ||||||
 [^DB]4 [B,FA]2 | E2- [EF]2 E2 | [^DB]6 | [B,D]2 B,2 [B,D]2 | [B,G]4 [B,G]2 | [Ec]2 [DB]2 [^C_B]2 | %19
w: ||||||
 [DB]4 d2 | d2 e2 d2 | c2 B2 G2 | G4 F2 | [B,G]6 |] %24
w: |||||
V:2
 [G,,G,]4 [G,,G,]2 | [G,,G,]4 [G,,G,]2 | D,2 E,2 [F,A,D]2 | [G,D]4 [F,A,D]2 | G,4 z2 | %5
 [B,,G,]4 [E,G,]2 | [A,,G,]4 [E,G,^C]2 | [D,D]2- [D,-E,D-]2 [D,F,D]2 | [G,B,]4 G,2 | %9
 G,,2 A,,2 B,,2 | [C,G,]4 [C,E,]2 | F,4 z2 | [E,^G,E]4 [A,,A,]2 | F,2 z2 z2 | z2 A,2 [E,G,]2 | %15
 [B,,F,]6 | [G,,G,]4 [G,,G,]2 | [G,,G,]4 [G,,G,]2 | [G,,G,]4 [G,,G,]2 | %19
 [G,,G,]4[K:treble] [G,B,G]2 | [G,G]2- [G,CG]2 [G,B,G]2 | [G,G]4[K:bass] z2 | [D,A,C]4 [D,A,C]2 | %23
 [G,,G,]6 |] %24
V:3
 x6 | x6 | [A,D]4 z2 | x6 | x6 | x6 | ^C4 z2 | z2 G,2 A,2 | D4 z2 | [G,G]4 z2 | E4 z2 | D2 z2 z2 | %12
 x6 | x6 | [B,G]2 z2 z2 | x6 | x6 | x6 | x6 | x6 | x6 | x6 | x6 | x6 |] %24
V:4
 x6 | x6 | x6 | x6 | [E,C]2 [D,D]2 [C,F,]2 | x6 | x6 | F,4 z2 | x6 | x6 | x6 | B,,2 ^C,2 [^D,A,]2 | %12
 x6 | B,,2- [B,,B,]2 ^D,2 | E,4 z2 | x6 | x6 | x6 | x6 | x4[K:treble] x2 | B,2 z2 z2 | %21
 E2[K:bass] D2 [G,B,D]2 | x6 | x6 |] %24

